client/assets/images/customer-home/illustration--task-connect-social-accounts.svg

<svg width="277" height="215" viewBox="0 0 277 215" fill="none" xmlns="http://www.w3.org/2000/svg">
<path d="M234.655 169.344C234.654 155.713 231.607 142.255 225.737 129.957C219.868 117.659 211.324 106.833 200.734 98.2719C190.144 89.711 177.774 83.6325 164.533 80.4821C151.292 77.3317 137.515 77.1893 124.212 80.0654C110.909 82.9414 98.4175 88.763 87.6529 97.1033C76.8884 105.444 68.124 116.091 62.0023 128.265C55.8806 140.439 52.5568 153.831 52.2747 167.459C51.9926 181.087 54.7593 194.605 60.3719 207.023H226.516C231.894 195.193 234.67 182.343 234.655 169.344Z" fill="#e9f0f5"/>
<path d="M53.3951 207.023H231.235" stroke="#02395c" stroke-linecap="round" stroke-linejoin="round"/>
<path d="M43.1351 207.023H48.8351" stroke="#02395c" stroke-linecap="round" stroke-linejoin="round"/>
<path d="M235.795 207.023H241.495" stroke="#02395c" stroke-linecap="round" stroke-linejoin="round"/>
<path d="M150.091 191.334H134.359V200.788H150.091V191.334Z" fill="white"/>
<path d="M150.091 191.334H134.359V200.788H150.091V191.334Z" stroke="#02395c" stroke-linecap="round" stroke-linejoin="round"/>
<path d="M162.677 207.091H121.774C121.774 205.419 122.437 203.816 123.617 202.634C124.797 201.452 126.397 200.788 128.066 200.788H156.384C158.051 200.794 159.648 201.46 160.827 202.641C162.006 203.822 162.671 205.421 162.677 207.091Z" fill="white" stroke="#02395c" stroke-linecap="round" stroke-linejoin="round"/>
<path d="M184.702 118.854H99.84C97.7538 118.854 95.7531 119.684 94.2779 121.161C92.8027 122.639 91.974 124.643 91.974 126.732V178.729H192.568V126.732C192.562 124.644 191.731 122.644 190.257 121.168C188.783 119.692 186.786 118.86 184.702 118.854Z" fill="#DCDCDE"/>
<path d="M152.462 118.854H99.84C97.7538 118.854 95.7531 119.684 94.2779 121.161C92.8027 122.639 91.974 124.643 91.974 126.732V179.551L152.462 118.854Z" fill="white"/>
<path d="M184.702 118.854H99.84C97.7538 118.854 95.7531 119.684 94.2779 121.161C92.8027 122.639 91.974 124.643 91.974 126.732V178.729H192.568V126.732C192.562 124.644 191.731 122.644 190.257 121.168C188.783 119.692 186.786 118.86 184.702 118.854V118.854Z" stroke="#02395c" stroke-linecap="round" stroke-linejoin="round"/>
<path d="M184.702 191.334C186.788 191.334 188.789 190.504 190.264 189.027C191.739 187.549 192.568 185.545 192.568 183.456V178.729H91.8828V183.456C91.8796 184.499 92.084 185.532 92.4839 186.496C92.8838 187.459 93.4713 188.333 94.212 189.066C94.9528 189.799 95.8319 190.378 96.7982 190.767C97.7645 191.157 98.7985 191.349 99.84 191.334H184.702Z" fill="white" stroke="#02395c" stroke-linecap="round" stroke-linejoin="round"/>
<path d="M142.225 186.333C142.943 186.333 143.525 185.75 143.525 185.031C143.525 184.313 142.943 183.73 142.225 183.73C141.507 183.73 140.926 184.313 140.926 185.031C140.926 185.75 141.507 186.333 142.225 186.333Z" stroke="#02395c" stroke-linecap="round" stroke-linejoin="round"/>
<path d="M258 130.5C268.217 130.5 276.5 122.217 276.5 112C276.5 101.783 268.217 93.5 258 93.5C247.783 93.5 239.5 101.783 239.5 112C239.5 122.217 247.783 130.5 258 130.5Z" fill="#1DA1F2" stroke="#01283d"/>
<path d="M254.706 121.495C262.689 121.495 267.054 114.88 267.054 109.147C267.054 108.958 267.054 108.769 267.045 108.589C267.891 107.977 268.629 107.212 269.214 106.339C268.44 106.681 267.603 106.915 266.721 107.023C267.621 106.483 268.305 105.637 268.629 104.62C267.792 105.115 266.865 105.475 265.875 105.673C265.083 104.827 263.958 104.305 262.707 104.305C260.313 104.305 258.369 106.249 258.369 108.643C258.369 108.985 258.405 109.318 258.486 109.633C254.877 109.453 251.682 107.725 249.54 105.097C249.171 105.736 248.955 106.483 248.955 107.275C248.955 108.778 249.72 110.11 250.89 110.884C250.179 110.866 249.513 110.668 248.928 110.344C248.928 110.362 248.928 110.38 248.928 110.398C248.928 112.504 250.422 114.25 252.411 114.655C252.051 114.754 251.664 114.808 251.268 114.808C250.989 114.808 250.719 114.781 250.449 114.727C250.998 116.455 252.6 117.706 254.499 117.742C253.014 118.903 251.142 119.596 249.108 119.596C248.757 119.596 248.415 119.578 248.073 119.533C249.972 120.775 252.258 121.495 254.706 121.495Z" fill="white"/>
<path d="M81 105L92 116" stroke="#02395c" stroke-linecap="round" stroke-linejoin="round"/>
<path d="M205 130L240 118" stroke="#02395c" stroke-linecap="round" stroke-linejoin="round"/>
<path d="M160 117L193 50" stroke="#02395c" stroke-linecap="round" stroke-linejoin="round"/>
<circle cx="205" cy="27" r="26.5" fill="#1877F2" stroke="#1D2327"/>
<path d="M215.121 34.5156L216.273 27H209.062V22.125C209.062 20.0684 210.068 18.0625 213.298 18.0625H216.578V11.6641C216.578 11.6641 213.602 11.1562 210.759 11.1562C204.817 11.1562 200.938 14.7566 200.938 21.2719V27H194.336V34.5156H200.938V52.6852C202.263 52.8934 203.619 53 205 53C206.381 53 207.737 52.8934 209.062 52.6852V34.5156H215.121Z" fill="white"/>
<path d="M12 205L68 181.9M92 172L75.5 178.806" stroke="#02395c" stroke-linecap="round" stroke-linejoin="round"/>
<circle cx="10" cy="205" r="9.5" fill="#F5E1B3" stroke="#01283d"/>
<circle cx="64" cy="89" r="23.5" fill="white" stroke="#01283d"/>
<g clip-path="url(#clip0)">
<path d="M78 88.833C78 87.8473 77.9213 86.8563 77.7533 85.8867H64.2808V91.4703H71.9959C71.6757 93.2712 70.647 94.8642 69.1407 95.8766V99.4996H73.7436C76.4465 96.9741 78 93.2445 78 88.833Z" fill="#4285F4"/>
<path d="M64.2807 103C68.133 103 71.3818 101.716 73.7488 99.4995L69.146 95.8765C67.8654 96.761 66.2121 97.2618 64.286 97.2618C60.5596 97.2618 57.4001 94.7097 56.2665 91.2785H51.5167V95.0134C53.9415 99.9098 58.8802 103 64.2807 103Z" fill="#34A853"/>
<path d="M56.2612 91.2786C55.6629 89.4777 55.6629 87.5277 56.2612 85.7268V81.9919H51.5167C49.4908 86.0891 49.4908 90.9163 51.5167 95.0134L56.2612 91.2786Z" fill="#FBBC04"/>
<path d="M64.2807 79.7382C66.3171 79.7062 68.2852 80.4841 69.76 81.912L73.838 77.7722C71.2558 75.3107 67.8286 73.9574 64.2807 74C58.8802 74 53.9415 77.0902 51.5167 81.9919L56.2612 85.7268C57.3896 82.2903 60.5544 79.7382 64.2807 79.7382Z" fill="#EA4335"/>
</g>
<defs>
<clipPath id="clip0">
<rect x="50" y="74" width="28" height="29" fill="white"/>
</clipPath>
</defs>
</svg>

<svg width="277" height="215" fill="none" xmlns="http://www.w3.org/2000/svg"><path d="M234.655 169.344a91.454 91.454 0 00-8.918-39.387 91.319 91.319 0 00-25.003-31.685 91.142 91.142 0 00-36.201-17.79 91.059 91.059 0 00-40.321-.417 91.134 91.134 0 00-36.56 17.038 91.317 91.317 0 00-25.65 31.162 91.467 91.467 0 00-1.63 78.758h166.144a90.795 90.795 0 008.139-37.679z" fill="#e9f0f5"/><path d="M53.395 207.023h177.84M43.135 207.023h5.7M235.795 207.023h5.7" stroke="#02395c" stroke-linecap="round" stroke-linejoin="round"/><path d="M150.091 191.334h-15.732v9.454h15.732v-9.454z" fill="#fff"/><path d="M150.091 191.334h-15.732v9.454h15.732v-9.454z" stroke="#02395c" stroke-linecap="round" stroke-linejoin="round"/><path d="M162.677 207.091h-40.903c0-1.672.663-3.275 1.843-4.457a6.286 6.286 0 014.449-1.846h28.318a6.31 6.31 0 014.443 1.853 6.33 6.33 0 011.85 4.45z" fill="#fff" stroke="#02395c" stroke-linecap="round" stroke-linejoin="round"/><path d="M184.702 118.854H99.84c-2.086 0-4.087.83-5.562 2.307a7.887 7.887 0 00-2.304 5.571v51.997h100.594v-51.997a7.906 7.906 0 00-2.311-5.564 7.883 7.883 0 00-5.555-2.314z" fill="#DCDCDE"/><path d="M152.462 118.854H99.84c-2.086 0-4.087.83-5.562 2.307a7.887 7.887 0 00-2.304 5.571v52.819l60.488-60.697z" fill="#fff"/><path d="M184.702 118.854H99.84c-2.086 0-4.087.83-5.562 2.307a7.887 7.887 0 00-2.304 5.571v51.997h100.594v-51.997a7.906 7.906 0 00-2.311-5.564 7.883 7.883 0 00-5.555-2.314v0z" stroke="#02395c" stroke-linecap="round" stroke-linejoin="round"/><path d="M184.702 191.334c2.086 0 4.087-.83 5.562-2.307a7.888 7.888 0 002.304-5.571v-4.727H91.883v4.727a7.87 7.87 0 002.329 5.61 7.842 7.842 0 005.628 2.268h84.862z" fill="#fff" stroke="#02395c" stroke-linecap="round" stroke-linejoin="round"/><path d="M142.225 186.333a1.301 1.301 0 000-2.603 1.3 1.3 0 00-1.299 1.301 1.3 1.3 0 001.299 1.302z" stroke="#02395c" stroke-linecap="round" stroke-linejoin="round"/><path d="M258 130.5c10.217 0 18.5-8.283 18.5-18.5s-8.283-18.5-18.5-18.5-18.5 8.283-18.5 18.5 8.283 18.5 18.5 18.5z" fill="#1DA1F2" stroke="#01283d"/><path d="M254.706 121.495c7.983 0 12.348-6.615 12.348-12.348 0-.189 0-.378-.009-.558a8.891 8.891 0 002.169-2.25 8.808 8.808 0 01-2.493.684 4.337 4.337 0 001.908-2.403 8.788 8.788 0 01-2.754 1.053 4.319 4.319 0 00-3.168-1.368 4.34 4.34 0 00-4.338 4.338c0 .342.036.675.117.99a12.311 12.311 0 01-8.946-4.536 4.353 4.353 0 00-.585 2.178 4.32 4.32 0 001.935 3.609 4.263 4.263 0 01-1.962-.54v.054a4.345 4.345 0 003.483 4.257 4.326 4.326 0 01-1.962.072 4.333 4.333 0 004.05 3.015 8.724 8.724 0 01-6.426 1.791 12.091 12.091 0 006.633 1.962z" fill="#fff"/><path d="M81 105l11 11M205 130l35-12M160 117l33-67" stroke="#02395c" stroke-linecap="round" stroke-linejoin="round"/><circle cx="205" cy="27" r="26.5" fill="#1877F2" stroke="#1D2327"/><path d="M215.121 34.516L216.273 27h-7.211v-4.875c0-2.057 1.006-4.063 4.236-4.063h3.28v-6.398s-2.976-.508-5.819-.508c-5.942 0-9.821 3.6-9.821 10.116V27h-6.602v7.516h6.602v18.17A26.15 26.15 0 00205 53a26.15 26.15 0 004.062-.315v-18.17h6.059z" fill="#fff"/><path d="M12 205l56-23.1m24-9.9l-16.5 6.806" stroke="#02395c" stroke-linecap="round" stroke-linejoin="round"/><circle cx="10" cy="205" r="9.5" fill="#F5E1B3" stroke="#01283d"/><circle cx="64" cy="89" r="23.5" fill="#fff" stroke="#01283d"/><g clip-path="url(#clip0)"><path d="M78 88.833c0-.986-.079-1.977-.247-2.946H64.281v5.583h7.715a6.72 6.72 0 01-2.855 4.407V99.5h4.603C76.447 96.974 78 93.245 78 88.833z" fill="#4285F4"/><path d="M64.28 103c3.853 0 7.102-1.284 9.469-3.5l-4.603-3.624c-1.28.885-2.934 1.386-4.86 1.386-3.726 0-6.886-2.552-8.02-5.984h-4.75v3.735C53.942 99.91 58.88 103 64.282 103z" fill="#34A853"/><path d="M56.261 91.279a8.81 8.81 0 010-5.552v-3.735h-4.744a14.709 14.709 0 000 13.021l4.744-3.734z" fill="#FBBC04"/><path d="M64.28 79.738a7.699 7.699 0 015.48 2.174l4.078-4.14A13.615 13.615 0 0064.281 74c-5.4 0-10.34 3.09-12.764 7.992l4.744 3.735c1.129-3.437 4.293-5.989 8.02-5.989z" fill="#EA4335"/></g><defs><clipPath id="clip0"><path fill="#fff" d="M50 74h28v29H50z"/></clipPath></defs></svg>
